packages/gestalt/src/icons/shopping-bag.svg

<svg height="24" width="24" xmlns="http://www.w3.org/2000/svg"><path fill-rule="evenodd" clip-rule="evenodd" d="M6 6L3 6C1.89543 6 1 6.89543 1 8V21C1 22.6569 2.34315 24 4 24H20C21.6569 24 23 22.6569 23 21V8C23 6.89543 22.1046 6 21 6H18C18 2.68629 15.3137 0 12 0C8.68629 0 6 2.68629 6 6ZM15 6C15 4.34315 13.6569 3 12 3C10.3431 3 9 4.34315 9 6L15 6ZM9 10.5C9 11.3284 8.32843 12 7.5 12C6.67157 12 6 11.3284 6 10.5C6 9.67157 6.67157 9 7.5 9C8.32843 9 9 9.67157 9 10.5ZM16.5 12C17.3284 12 18 11.3284 18 10.5C18 9.67157 17.3284 9 16.5 9C15.6716 9 15 9.67157 15 10.5C15 11.3284 15.6716 12 16.5 12Z" fill="#111111"/></svg>

<svg xmlns="http://www.w3.org/2000/svg" width="24" height="24"><path d="M6 6H3a2 2 0 00-2 2v13a3 3 0 003 3h16a3 3 0 003-3V8a2 2 0 00-2-2h-3A6 6 0 006 6zm3 0a3 3 0 116 0zm0 4.5a1.5 1.5 0 11-3 0 1.5 1.5 0 013 0zm6 0a1.5 1.5 0 113 0 1.5 1.5 0 01-3 0z"/></svg>
